img/slide-next.svg

<svg width="30" height="30" viewBox="0 0 30 30" fill="none" xmlns="http://www.w3.org/2000/svg">
<path opacity="0.8" d="M19.5328 15L10.4328 5.55C9.85575 4.95 9.85575 4.05 10.4328 3.45C11.0108 2.85 11.8778 2.85 12.4558 3.45L22.5658 13.95C22.8558 14.25 22.9998 14.7 22.9998 15C22.9998 15.45 22.8557 15.75 22.5667 16.05L12.4558 26.55C12.1658 26.85 11.8778 27 11.4438 27C11.0108 27 10.7218 26.85 10.4338 26.55C9.85575 25.95 9.85575 25.05 10.4338 24.45L19.5338 15H19.5328Z" fill="#9C9C9C"/>
</svg>

<svg class="arrow-svg_1j4" viewBox="0 0 30 30"><defs><path d="M19.533 15l-9.1-9.45c-.577-.6-.577-1.5 0-2.1.578-.6 1.445-.6 2.023 0l10.11 10.5c.29.3.434.75.434 1.05 0 .45-.144.75-.433 1.05l-10.111 10.5c-.29.3-.578.45-1.012.45-.433 0-.722-.15-1.01-.45-.578-.6-.578-1.5 0-2.1l9.1-9.45z" id="a-1625570959958"></path></defs><use fill-rule="nonzero" opacity=".8" xlink:href="#a-1625570959958"></use></svg>
